X: 10
T: Famous Ballymote, The
Z: Richard D Cook
S: https://thesession.org/tunes/390#setting49825
R: reel
M: 4/4
L: 1/8
K: Dmix
+slide+F2AD FA A/A/A|cABG EFGE|FDAD FA A/A/A|cAGE EDDE |
+slide+ F2AD FA A/A/A|cABG EFGE|FDAD FA A/A/A|cAGE ED D2 ||
|: FDFA d/d/d ed|^cABG EFGE| FDFA d/d/d ed|^cAGE EDDE :|

